src/assets/icons/time,simple,clock.svg

<svg width="48" height="48" viewBox="0 0 48 48" fill="none" xmlns="http://www.w3.org/2000/svg">
<rect opacity="0.2" x="5" y="5" width="38" height="38" rx="4" fill="black"/>
<path fill-rule="evenodd" clip-rule="evenodd" d="M24 38C31.732 38 38 31.732 38 24C38 16.268 31.732 10 24 10C16.268 10 10 16.268 10 24C10 31.732 16.268 38 24 38ZM25.6667 15.5C25.6667 14.6716 24.9951 14 24.1667 14C23.3382 14 22.6667 14.6716 22.6667 15.5V25.5C22.6667 26.3284 23.3382 27 24.1667 27H29.1667C29.9951 27 30.6667 26.3284 30.6667 25.5C30.6667 24.6716 29.9951 24 29.1667 24H25.6667V15.5Z" fill="black"/>
</svg>

<svg xmlns="http://www.w3.org/2000/svg" width="48" height="48" fill="none" viewBox="0 0 48 48">
  <rect width="38" height="38" x="5" y="5" fill="#000" opacity=".2" rx="4"/>
  <path fill="#000" fill-rule="evenodd" d="M24 38c7.732 0 14-6.268 14-14s-6.268-14-14-14-14 6.268-14 14 6.268 14 14 14zm1.667-22.5a1.5 1.5 0 00-3 0v10a1.5 1.5 0 001.5 1.5h5a1.5 1.5 0 000-3h-3.5v-8.5z" clip-rule="evenodd"/>
</svg>
